build/img/sprite_auto.svg

<svg xmlns="http://www.w3.org/2000/svg" xmlns:xlink="http://www.w3.org/1999/xlink"><symbol id="icon-address" viewBox="0 0 18 22">
<path d="M15.364 15.5563L9 22L2.636 15.5563C1.37734 14.2819 0.520187 12.6581 0.172928 10.8905C-0.17433 9.12277 0.00390685 7.29051 0.685099 5.62539C1.36629 3.96027 2.51984 2.53707 3.99988 1.53576C5.47992 0.534448 7.21998 0 9 0C10.78 0 12.5201 0.534448 14.0001 1.53576C15.4802 2.53707 16.6337 3.96027 17.3149 5.62539C17.9961 7.29051 18.1743 9.12277 17.8271 10.8905C17.4798 12.6581 16.6227 14.2819 15.364 15.5563ZM9 11.1377C9.53044 11.1377 10.0391 10.9243 10.4142 10.5445C10.7893 10.1648 11 9.64969 11 9.11262C11 8.57554 10.7893 8.06047 10.4142 7.6807C10.0391 7.30093 9.53044 7.08757 9 7.08757C8.46957 7.08757 7.96086 7.30093 7.58579 7.6807C7.21072 8.06047 7 8.57554 7 9.11262C7 9.64969 7.21072 10.1648 7.58579 10.5445C7.96086 10.9243 8.46957 11.1377 9 11.1377Z" fill="#011C40"/>
</symbol><symbol id="icon-allinclusive" viewBox="0 0 38 21">
<path d="M28.7534 2.21506L26.4398 0L16.0732 9.93254L18.3868 12.1476L28.7534 2.21506ZM35.6945 0L18.3787 16.5699L11.5602 10.0421L9.24656 12.2572L18.3787 21L38 2.21506L35.6945 0ZM0 12.2572L9.1321 21L11.4458 18.7849L2.31368 10.0421L0 12.2572Z" fill="#011C40"/>
</symbol><symbol id="icon-facebook" viewBox="0 0 11 20">
<path d="M7.33333 11.5H9.95238L11 7.5H7.33333V5.5C7.33333 4.47 7.33333 3.5 9.42857 3.5H11V0.14C10.6585 0.0970001 9.36886 0 8.00695 0C5.16267 0 3.14286 1.657 3.14286 4.7V7.5H0V11.5H3.14286V20H7.33333V11.5Z" fill="#F9FBFD"/>
</symbol><symbol id="icon-insta" viewBox="0 0 20 20">
<path d="M10 0C12.717 0 13.056 0.00999994 14.122 0.0599999C15.187 0.11 15.912 0.277 16.55 0.525C17.21 0.779 17.766 1.123 18.322 1.678C18.8305 2.1779 19.224 2.78259 19.475 3.45C19.722 4.087 19.89 4.813 19.94 5.878C19.987 6.944 20 7.283 20 10C20 12.717 19.99 13.056 19.94 14.122C19.89 15.187 19.722 15.912 19.475 16.55C19.2247 17.2178 18.8311 17.8226 18.322 18.322C17.822 18.8303 17.2173 19.2238 16.55 19.475C15.913 19.722 15.187 19.89 14.122 19.94C13.056 19.987 12.717 20 10 20C7.283 20 6.944 19.99 5.878 19.94C4.813 19.89 4.088 19.722 3.45 19.475C2.78233 19.2245 2.17753 18.8309 1.678 18.322C1.16941 17.8222 0.775931 17.2175 0.525 16.55C0.277 15.913 0.11 15.187 0.0599999 14.122C0.0129999 13.056 0 12.717 0 10C0 7.283 0.00999994 6.944 0.0599999 5.878C0.11 4.812 0.277 4.088 0.525 3.45C0.775236 2.78218 1.1688 2.17732 1.678 1.678C2.17767 1.16923 2.78243 0.775729 3.45 0.525C4.088 0.277 4.812 0.11 5.878 0.0599999C6.944 0.0129999 7.283 0 10 0ZM10 5C8.67392 5 7.40215 5.52678 6.46447 6.46447C5.52678 7.40215 5 8.67392 5 10C5 11.3261 5.52678 12.5979 6.46447 13.5355C7.40215 14.4732 8.67392 15 10 15C11.3261 15 12.5979 14.4732 13.5355 13.5355C14.4732 12.5979 15 11.3261 15 10C15 8.67392 14.4732 7.40215 13.5355 6.46447C12.5979 5.52678 11.3261 5 10 5ZM16.5 4.75C16.5 4.41848 16.3683 4.10054 16.1339 3.86612C15.8995 3.6317 15.5815 3.5 15.25 3.5C14.9185 3.5 14.6005 3.6317 14.3661 3.86612C14.1317 4.10054 14 4.41848 14 4.75C14 5.08152 14.1317 5.39946 14.3661 5.63388C14.6005 5.8683 14.9185 6 15.25 6C15.5815 6 15.8995 5.8683 16.1339 5.63388C16.3683 5.39946 16.5 5.08152 16.5 4.75ZM10 7C10.7956 7 11.5587 7.31607 12.1213 7.87868C12.6839 8.44129 13 9.20435 13 10C13 10.7956 12.6839 11.5587 12.1213 12.1213C11.5587 12.6839 10.7956 13 10 13C9.20435 13 8.44129 12.6839 7.87868 12.1213C7.31607 11.5587 7 10.7956 7 10C7 9.20435 7.31607 8.44129 7.87868 7.87868C8.44129 7.31607 9.20435 7 10 7Z" fill="#F9FBFD"/>
</symbol><symbol id="icon-ship" viewBox="0 0 27 32">
<path d="M4.40549 16.3962L13.2165 9.93576C13.4162 9.8063 13.6711 9.8063 13.8708 9.93576L22.7254 16.3962V8.68818C22.7739 7.6312 21.9743 6.7343 20.9396 6.68484C20.9242 6.68407 20.9089 6.68356 20.8934 6.68322H6.23749C5.20189 6.70667 4.38094 7.58319 4.4039 8.6411C4.40423 8.6568 4.40473 8.67249 4.40549 8.68818V16.3962Z" fill="#011C40"/>
<path d="M15.7464 0H11.3845V5.34662H15.7464V0Z" fill="#011C40"/>
<path d="M24.2956 30.1638L27 21.03L23.2052 18.3122L22.9434 18.1785L14.0016 11.8072V30.6094H13.5217L12.6929 30.5649V11.8072L0 21.03L2.79163 30.1193L4.4039 31.9904C4.4039 31.9904 5.7624 31.9904 7.15817 31.9904C7.15817 31.9904 12.2467 31.997 13.5218 31.9904C14.8198 32.012 17.1251 31.9904 17.1251 31.9904H22.8127L24.2956 30.1638Z" fill="#011C40"/>
</symbol><symbol id="icon-tel" viewBox="0 0 18 18">
<path d="M18 13.42V16.956C18.0001 17.2092 17.9042 17.453 17.7316 17.6382C17.559 17.8234 17.3226 17.9363 17.07 17.954C16.633 17.984 16.276 18 16 18C7.163 18 0 10.837 0 2C0 1.724 0.015 1.367 0.046 0.93C0.0637224 0.677444 0.176581 0.441011 0.361804 0.268409C0.547026 0.0958068 0.790823 -0.000114433 1.044 2.56579e-07H4.58C4.70404 -0.000125334 4.8237 0.045859 4.91573 0.12902C5.00776 0.212182 5.0656 0.326583 5.078 0.45C5.101 0.68 5.122 0.863 5.142 1.002C5.34073 2.38892 5.748 3.73783 6.35 5.003C6.445 5.203 6.383 5.442 6.203 5.57L4.045 7.112C5.36445 10.1865 7.81455 12.6365 10.889 13.956L12.429 11.802C12.4919 11.714 12.5838 11.6509 12.6885 11.6237C12.7932 11.5964 12.9042 11.6068 13.002 11.653C14.267 12.2539 15.6156 12.6601 17.002 12.858C17.141 12.878 17.324 12.9 17.552 12.922C17.6752 12.9346 17.7894 12.9926 17.8724 13.0846C17.9553 13.1766 18.0012 13.2961 18.001 13.42H18Z" fill="#011C40"/>
</symbol><symbol id="icon-tick" viewBox="0 0 12 8">
<path d="M1 2.5L5.28571 7L11 1" stroke="#101A56"/>
</symbol><symbol id="icon-twitter" viewBox="0 0 20 16">
<path d="M19.999 1.89937C19.25 2.22538 18.4556 2.43949 17.6423 2.53461C18.4996 2.03012 19.1412 1.23616 19.4476 0.300674C18.6431 0.771788 17.761 1.10195 16.8416 1.28055C16.2241 0.630434 15.4056 0.199271 14.5133 0.0540959C13.621 -0.0910793 12.705 0.0578671 11.9076 0.477779C11.1103 0.897691 10.4762 1.56504 10.1041 2.37608C9.73199 3.18712 9.64261 4.09641 9.84988 4.96259C8.21832 4.88212 6.62219 4.46495 5.16512 3.73814C3.70805 3.01133 2.42261 1.99113 1.39227 0.743792C1.02756 1.36015 0.835906 2.06082 0.836931 2.77403C0.836931 4.17386 1.56103 5.41053 2.66189 6.13458C2.01041 6.1144 1.37327 5.94129 0.803571 5.62968V5.67988C0.803768 6.61216 1.13164 7.5157 1.7316 8.23728C2.33156 8.95886 3.16668 9.45408 4.09537 9.63898C3.4906 9.80024 2.85646 9.82401 2.24097 9.70849C2.50281 10.511 3.01315 11.2128 3.70054 11.7157C4.38793 12.2185 5.21794 12.4973 6.07437 12.513C5.2232 13.1707 4.2486 13.657 3.20632 13.9439C2.16403 14.2308 1.0745 14.3127 0 14.185C1.87568 15.3719 4.05916 16.002 6.28925 16C13.8373 16 17.9651 9.84751 17.9651 4.51175C17.9651 4.33797 17.9602 4.16227 17.9523 3.99043C18.7558 3.41908 19.4492 2.71129 20 1.90034L19.999 1.89937Z" fill="#F9FBFD"/>
</symbol><symbol id="icon-zodiac" viewBox="0 0 42 15">
<path d="M39.555 12.056L1.57287 8.06841C1.28101 8.03777 1.0843 8.33255 1.23548 8.56735C3.66312 12.3403 9.41009 15 16.1 15H38.7584C38.9124 15 39.0475 14.9068 39.093 14.7698L39.8504 12.476C39.9148 12.281 39.7727 12.0788 39.555 12.056Z" fill="#011C40"/>
<path d="M41.8896 5.51766C41.7782 5.35594 41.597 5.24833 41.3933 5.22287L30.8932 3.91844C30.5145 3.87213 30.1582 4.1219 30.1065 4.47868C30.0547 4.83545 30.3248 5.16418 30.7078 5.21172L31.8964 5.35915C32.07 5.3807 32.2002 5.51896 32.2002 5.68199V6.69033C32.2002 6.884 32.0195 7.03534 31.8131 7.01447L29.0131 6.73466C28.8353 6.71769 28.7002 6.57744 28.7002 6.41113V3.55647C28.7002 3.49189 28.7205 3.42929 28.759 3.37579L29.9826 1.66575C30.1226 1.47009 30.1387 1.21962 30.0253 1.01028C29.9112 0.800253 29.6852 0.663291 29.4332 0.652208L14.7331 3.06688e-05C14.4972 -0.00195651 14.2683 0.0926639 14.1304 0.272657C14.1304 0.272657 11.3332 3.93541 10.72 4.74152C10.6465 4.83805 10.5233 4.88956 10.3973 4.87649L0.774214 3.91653C0.575451 3.89697 0.379396 3.95635 0.231739 4.07956C0.0847386 4.20353 0 4.37962 0 4.56481C0 5.19291 0.0875277 5.80856 0.252739 6.40601C0.289161 6.53778 0.412372 6.63362 0.55724 6.64929L40.1052 10.8012C40.2725 10.8188 40.4293 10.7229 40.479 10.5729L41.9694 6.06093C42.0295 5.87773 42.0001 5.67878 41.8896 5.51766ZM20.2007 1.90513L19.6547 5.46745C19.6281 5.64026 19.4635 5.76354 19.2767 5.74596C17.911 5.61748 12.7799 5.11465 12.7799 5.11465C12.5139 5.0879 12.3768 4.80419 12.5321 4.60073L14.9366 1.46428C15.0059 1.37424 15.1193 1.32273 15.2383 1.328L19.871 1.53345C20.0768 1.54254 20.23 1.71466 20.2007 1.90513ZM27.7894 2.3806L27.3589 2.98065C27.3204 3.03415 27.3001 3.09736 27.3001 3.16194V6.20187C27.3001 6.39554 27.1195 6.54687 26.913 6.52601L21.3577 5.97166C21.161 5.95209 21.0203 5.78379 21.0483 5.6012L21.6146 1.9078C21.6398 1.74149 21.7973 1.62019 21.9779 1.62799L27.5149 1.87386C27.7866 1.88556 27.9406 2.16927 27.7894 2.3806ZM36.4001 7.1097C36.4001 7.30337 36.2195 7.45471 36.013 7.43384C36.013 7.43384 34.5598 7.28121 33.9088 7.20952C33.7324 7.19064 33.6001 7.051 33.6001 6.88599V5.94292C33.6001 5.74596 33.7863 5.59333 33.9963 5.61939L36.0963 5.88025C36.2699 5.90241 36.4001 6.04068 36.4001 6.20378V7.1097ZM40.2662 6.78228L40.0065 7.56752C39.9576 7.71625 39.8014 7.81209 39.6348 7.79581L38.1123 7.64387C37.9352 7.62629 37.8001 7.48604 37.8001 7.31973V6.46532C37.8001 6.26836 37.9863 6.11573 38.1963 6.14179L39.9778 6.3629C40.192 6.38966 40.3299 6.58929 40.2662 6.78228Z" fill="#011C40"/>
</symbol></svg>

<svg xmlns="http://www.w3.org/2000/svg" xmlns:xlink="http://www.w3.org/1999/xlink"><symbol id="icon-address"><path d="M15.364 15.556L9 22l-6.364-6.444a9.149 9.149 0 01-2.463-4.665 9.219 9.219 0 01.512-5.266A9.09 9.09 0 014 1.535 8.921 8.921 0 019 0c1.78 0 3.52.534 5 1.536a9.089 9.089 0 013.315 4.09 9.22 9.22 0 01.512 5.264 9.149 9.149 0 01-2.463 4.666zM9 11.138c.53 0 1.04-.214 1.414-.594a2.038 2.038 0 000-2.864A1.988 1.988 0 009 7.089c-.53 0-1.04.213-1.414.593A2.03 2.03 0 007 9.113c0 .537.21 1.052.586 1.431.375.38.884.594 1.414.594z" fill="#011C40"/></symbol><symbol id="icon-allinclusive"><path d="M28.753 2.215L26.44 0 16.073 9.933l2.314 2.215 10.366-9.933zM35.694 0L18.38 16.57l-6.819-6.528-2.313 2.215L18.379 21 38 2.215 35.694 0zM0 12.257L9.132 21l2.314-2.215-9.132-8.743L0 12.257z" fill="#011C40"/></symbol><symbol id="icon-facebook"><path d="M7.333 11.5h2.62L11 7.5H7.333v-2c0-1.03 0-2 2.096-2H11V.14C10.659.097 9.369 0 8.007 0 5.163 0 3.143 1.657 3.143 4.7v2.8H0v4h3.143V20h4.19v-8.5z" fill="#F9FBFD"/></symbol><symbol id="icon-insta"><path d="M10 0c2.717 0 3.056.01 4.122.06 1.065.05 1.79.217 2.428.465.66.254 1.216.598 1.772 1.153.509.5.902 1.105 1.153 1.772.247.637.415 1.363.465 2.428.047 1.066.06 1.405.06 4.122 0 2.717-.01 3.056-.06 4.122-.05 1.065-.218 1.79-.465 2.428a4.883 4.883 0 01-1.153 1.772c-.5.508-1.105.902-1.772 1.153-.637.247-1.363.415-2.428.465-1.066.047-1.405.06-4.122.06-2.717 0-3.056-.01-4.122-.06-1.065-.05-1.79-.218-2.428-.465a4.89 4.89 0 01-1.772-1.153A4.904 4.904 0 01.525 16.55C.277 15.913.11 15.187.06 14.122.013 13.056 0 12.717 0 10c0-2.717.01-3.056.06-4.122.05-1.066.217-1.79.465-2.428a4.88 4.88 0 011.153-1.772A4.897 4.897 0 013.45.525C4.088.277 4.812.11 5.878.06 6.944.013 7.283 0 10 0zm0 5a5 5 0 100 10 5 5 0 000-10zm6.5-.25a1.25 1.25 0 10-2.5 0 1.25 1.25 0 002.5 0zM10 7a3 3 0 110 6 3 3 0 010-6z" fill="#F9FBFD"/></symbol><symbol id="icon-ship"><path d="M4.405 16.396l8.811-6.46a.6.6 0 01.655 0l8.854 6.46V8.688c.049-1.057-.75-1.954-1.785-2.003l-.047-.002H6.237c-1.035.024-1.856.9-1.833 1.958l.001.047v7.708zM15.746 0h-4.362v5.347h4.362V0z" fill="#011C40"/><path d="M24.296 30.164L27 21.03l-3.795-2.718-.262-.134-8.941-6.37v18.801h-.48l-.83-.044V11.807L0 21.03l2.792 9.09 1.612 1.87h2.754s5.089.007 6.364 0c1.298.022 3.603 0 3.603 0h5.688l1.483-1.826z" fill="#011C40"/></symbol><symbol id="icon-tel"><path d="M18 13.42v3.536a1 1 0 01-.93.998c-.437.03-.794.046-1.07.046C7.163 18 0 10.837 0 2c0-.276.015-.633.046-1.07A1 1 0 011.044 0H4.58a.5.5 0 01.498.45c.023.23.044.413.064.552A13.9 13.9 0 006.35 5.003c.095.2.033.439-.147.567L4.045 7.112a13.047 13.047 0 006.844 6.844l1.54-2.154a.462.462 0 01.573-.149 13.9 13.9 0 004 1.205c.139.02.322.042.55.064a.5.5 0 01.449.498H18z" fill="#011C40"/></symbol><symbol id="icon-tick"><path d="M1 2.5L5.286 7 11 1" stroke="#101A56"/></symbol><symbol id="icon-twitter"><path d="M19.999 1.9a8.33 8.33 0 01-2.357.635A4.063 4.063 0 0019.448.3a8.281 8.281 0 01-2.606.98A4.124 4.124 0 0014.513.054a4.162 4.162 0 00-2.605.424 4.065 4.065 0 00-1.804 1.898 3.978 3.978 0 00-.254 2.587 11.8 11.8 0 01-4.685-1.225A11.617 11.617 0 011.392.744a3.974 3.974 0 00-.555 2.03c0 1.4.724 2.637 1.825 3.36A4.14 4.14 0 01.804 5.63v.05a4 4 0 00.928 2.557A4.118 4.118 0 004.095 9.64a4.196 4.196 0 01-1.854.07 4.043 4.043 0 001.46 2.007 4.15 4.15 0 002.373.797 8.288 8.288 0 01-2.868 1.43A8.365 8.365 0 010 14.186 11.746 11.746 0 006.29 16c7.547 0 11.675-6.152 11.675-11.488 0-.174-.005-.35-.013-.522A8.262 8.262 0 0020 1.9h-.001z" fill="#F9FBFD"/></symbol><symbol id="icon-zodiac"><path d="M39.555 12.056L1.573 8.068c-.292-.03-.489.265-.338.5C3.663 12.34 9.41 15 16.1 15h22.658c.154 0 .29-.093.335-.23l.757-2.294c.065-.195-.077-.397-.295-.42zm2.335-6.538a.707.707 0 00-.497-.295l-10.5-1.305c-.378-.046-.735.204-.787.56-.051.357.219.686.602.734l1.188.147c.174.022.304.16.304.323V6.69c0 .194-.18.345-.387.324l-2.8-.28a.335.335 0 01-.313-.323V3.556c0-.064.02-.127.059-.18l1.224-1.71a.614.614 0 00.042-.656.706.706 0 00-.592-.358L14.733 0a.746.746 0 00-.603.273s-2.797 3.662-3.41 4.469a.359.359 0 01-.323.134l-9.623-.96a.735.735 0 00-.542.164.636.636 0 00-.232.485c0 .628.088 1.244.253 1.841a.35.35 0 00.304.243l39.548 4.152a.351.351 0 00.374-.228l1.49-4.512a.617.617 0 00-.08-.543zM20.2 1.905l-.545 3.562a.342.342 0 01-.378.279c-1.366-.129-6.497-.631-6.497-.631-.266-.027-.403-.31-.248-.514l2.405-3.137a.36.36 0 01.301-.136l4.633.205c.206.01.359.182.33.372zm7.59.476l-.431.6a.31.31 0 00-.059.18v3.04c0 .195-.18.346-.387.325l-5.555-.554c-.197-.02-.338-.188-.31-.37l.567-3.694c.025-.167.182-.288.363-.28l5.537.246c.272.012.426.295.274.507zM36.4 7.11c0 .193-.18.345-.387.324 0 0-1.453-.153-2.104-.224a.334.334 0 01-.309-.324v-.943c0-.197.186-.35.396-.324l2.1.261c.174.022.304.16.304.324v.906zm3.866-.328l-.26.786a.351.351 0 01-.371.228l-1.523-.152a.336.336 0 01-.312-.324v-.855c0-.197.186-.35.396-.323l1.782.22c.214.028.352.227.288.42z" fill="#011C40"/></symbol></svg>
